X: 0608
T: Johnny McGill
T: Come Under My Plaidie
C: John MacGill
B: RSCDS 6-8 (Prince of Orange)
B: RSCDS 11-3 (Johnny McGill)
R: jig
Z: 2006 John Chambers <jc:trillian.mit.edu>
S: handwritten MS
M: 6/8
L: 1/8
K: G
{f}g \
| "G"d>BB BAB | d>BB B2{f}g | d>BB BAB | "Em"GEE E2{f}g \
| "G"d>BB BAB | d>BB BAG | "Am"A>Bc "B7"BcA | "Em"G>EE E2 :|
|: f \
| "G"g>fg "D7"a>ga | "G"b>ge dBG | "G"g>fg "D7"a>ga | "Em"b>ge e2g/a/ \
| "G"bgb "D"afa | "Em"gef "C"gfe | "Bm"d>BB "B7"BAB | "Em"G>EE E2 :|
%%center Book06/other/JohnnyMcGill_G-JC.abc

%%sep 1 1 500
%%sep 1 1 500

